lib/flags/l/GRD.svg

<svg xmlns="http://www.w3.org/2000/svg" fill="none" viewBox="0 0 32 24"><mask id="GRD_svg__a" width="32" height="24" x="0" y="0" mask-type="alpha" maskUnits="userSpaceOnUse"><path fill="#fff" d="M0 0H32V24H0z"/></mask><g mask="url(#GRD_svg__a)"><path fill="#C51918" fill-rule="evenodd" d="M0 0H32V24H0V0Z" clip-rule="evenodd"/><path fill="#FECA00" fill-rule="evenodd" d="M6 6H26V18H6V6Z" clip-rule="evenodd"/><mask id="GRD_svg__b" width="20" height="12" x="6" y="6" mask-type="alpha" maskUnits="userSpaceOnUse"><path fill="#fff" fill-rule="evenodd" d="M6 6H26V18H6V6Z" clip-rule="evenodd"/></mask><g mask="url(#GRD_svg__b)"><path fill="#23875F" fill-rule="evenodd" d="M6 6 16 12 6 18V6zM26 6 16 12 26 18V6z" clip-rule="evenodd"/><mask width="10" height="12" x="16" y="6" mask-type="alpha" maskUnits="userSpaceOnUse"><path fill="#fff" fill-rule="evenodd" d="M26 6L16 12L26 18V6Z" clip-rule="evenodd"/></mask><path fill="#C51918" fill-rule="evenodd" d="M16 16C18.2091 16 20 14.2091 20 12C20 9.79086 18.2091 8 16 8C13.7909 8 12 9.79086 12 12C12 14.2091 13.7909 16 16 16Z" clip-rule="evenodd"/><path fill="#FECA00" fill-rule="evenodd" d="M15.9295 13.3132L13.8585 14.7497L14.5203 12.2894L13 10.7178L15.0585 10.6328L15.9295 8.19995L16.8004 10.6328H18.8554L17.3386 12.2894L18.0983 14.6044L15.9295 13.3132Z" clip-rule="evenodd"/></g><path fill="#FECA00" fill-rule="evenodd" d="M8.77679 4.44207L9.90855 3.74027L11.0938 4.37112L10.6787 3.24005L11.5076 2.43068H10.3845L9.90855 1.24207L9.43259 2.43068L8.3076 2.4722L9.13843 3.24005L8.77679 4.44207ZM14.7768 4.44207L15.9086 3.74027L17.0938 4.37112L16.6787 3.24005L17.5076 2.43068H16.3845L15.9086 1.24207L15.4326 2.43068L14.3076 2.4722L15.1384 3.24005L14.7768 4.44207ZM21.9086 3.74027L20.7768 4.44207L21.1384 3.24005L20.3076 2.4722L21.4326 2.43068L21.9086 1.24207L22.3845 2.43068H23.5076L22.6787 3.24005L23.0938 4.37112L21.9086 3.74027ZM8.77583 22.1672L9.9076 21.4654L11.0929 22.0962L10.6777 20.9652L11.5066 20.1558H10.3836L9.9076 18.9672L9.43163 20.1558L8.30664 20.1973L9.13747 20.9652L8.77583 22.1672ZM15.9076 21.4654L14.7758 22.1672L15.1375 20.9652L14.3066 20.1973L15.4316 20.1558L15.9076 18.9672L16.3836 20.1558H17.5066L16.6777 20.9652L17.0929 22.0962L15.9076 21.4654ZM20.7758 22.1672L21.9076 21.4654L23.0929 22.0962L22.6777 20.9652L23.5066 20.1558H22.3836L21.9076 18.9672L21.4316 20.1558L20.3066 20.1973L21.1375 20.9652L20.7758 22.1672Z" clip-rule="evenodd"/><path fill="#C51918" fill-rule="evenodd" d="M8.63486 12.772C8.63486 12.772 9.17343 13.2514 9.46675 13.4147C9.56789 13.0314 9.34222 12.1629 9.34222 12.1629C9.27891 11.9553 8.58441 11.5831 8.58441 11.5831C8.58441 11.5831 8.38934 12.2385 8.63486 12.772Z" clip-rule="evenodd"/><path fill="#FECA00" fill-rule="evenodd" d="M9.19579 13.9302C9.19579 13.9302 7.81256 13.2841 7.67199 12.3703C7.53143 11.4565 7.82953 9.99976 7.82953 9.99976C7.82953 9.99976 10.0757 10.5109 10.2286 11.6061C10.3814 12.7013 9.87404 13.3894 9.87404 13.3894C9.87404 13.3894 9.35449 12.0543 8.86421 11.9062C8.86421 11.9062 8.86421 13.2293 9.19579 13.9302Z" clip-rule="evenodd"/></g></svg>

<svg xmlns="http://www.w3.org/2000/svg" fill="none" viewBox="0 0 32 24"><mask id="GRD_svg__a" width="32" height="24" x="0" y="0" maskUnits="userSpaceOnUse"><path fill="#fff" d="M0 0h32v24H0z"/></mask><g mask="url(#GRD_svg__a)"><path fill="#C51918" fill-rule="evenodd" d="M0 0h32v24H0V0z" clip-rule="evenodd"/><path fill="#FECA00" fill-rule="evenodd" d="M6 6h20v12H6V6z" clip-rule="evenodd"/><mask id="GRD_svg__b" width="20" height="12" x="6" y="6" maskUnits="userSpaceOnUse"><path fill="#fff" fill-rule="evenodd" d="M6 6h20v12H6V6z" clip-rule="evenodd"/></mask><g fill-rule="evenodd" clip-rule="evenodd" mask="url(#GRD_svg__b)"><path fill="#23875F" d="M6 6l10 6-10 6V6zm20 0l-10 6 10 6V6z"/><path fill="#C51918" d="M16 16a4 4 0 100-8 4 4 0 000 8z"/><path fill="#FECA00" d="M15.93 13.313l-2.072 1.437.662-2.46L13 10.717l2.059-.085.87-2.433.871 2.433h2.055l-1.516 1.656.76 2.316-2.17-1.292z"/></g><path fill="#FECA00" fill-rule="evenodd" d="M8.777 4.442l1.131-.702 1.186.631-.415-1.131.829-.81h-1.124l-.476-1.188-.476 1.189-1.125.041.831.768-.361 1.202zm6 0l1.131-.702 1.186.631-.415-1.131.829-.81h-1.124l-.476-1.188-.476 1.189-1.125.041.831.768-.361 1.202zm7.131-.702l-1.131.702.361-1.202-.83-.768 1.125-.041.475-1.189.476 1.189h1.123l-.828.809.415 1.131-1.186-.63zM8.776 22.167l1.131-.702 1.186.631-.415-1.13.829-.81h-1.124l-.476-1.189-.475 1.189-1.125.041.83.768-.361 1.202zm7.132-.702l-1.132.702.361-1.202-.83-.768 1.124-.041.477-1.189.475 1.189h1.123l-.828.81.415 1.13-1.185-.63zm4.868.702l1.131-.702 1.186.631-.415-1.13.828-.81h-1.123l-.476-1.189-.476 1.189-1.125.041.831.768-.361 1.202z" clip-rule="evenodd"/><path fill="#C51918" fill-rule="evenodd" d="M8.635 12.772s.538.48.832.643c.1-.384-.125-1.252-.125-1.252-.063-.208-.758-.58-.758-.58s-.195.655.05 1.189z" clip-rule="evenodd"/><path fill="#FECA00" fill-rule="evenodd" d="M9.196 13.93s-1.383-.646-1.524-1.56c-.14-.913.158-2.37.158-2.37s2.246.51 2.399 1.606c.152 1.095-.355 1.783-.355 1.783s-.52-1.335-1.01-1.483c0 0 0 1.323.332 2.024z" clip-rule="evenodd"/></g></svg>
